icons/hubot-16.svg

<svg width="16" height="16" viewBox="0 0 16 16" xmlns="http://www.w3.org/2000/svg">
  <path fill-rule="evenodd" clip-rule="evenodd" d="M0 8C0 3.58172 3.58172 0 8 0C12.4183 0 16 3.58172 16 8V13.25C16 13.6642 15.6642 14 15.25 14C14.8358 14 14.5 13.6642 14.5 13.25V8C14.5 4.41015 11.5899 1.5 8 1.5C4.41015 1.5 1.5 4.41015 1.5 8V13.25C1.5 13.6642 1.16421 14 0.75 14C0.335786 14 0 13.6642 0 13.25V8ZM5.5 12.25C5.5 11.8358 5.83579 11.5 6.25 11.5H9.75C10.1642 11.5 10.5 11.8358 10.5 12.25C10.5 12.6642 10.1642 13 9.75 13H6.25C5.83579 13 5.5 12.6642 5.5 12.25ZM3 6.75C3 5.7835 3.7835 5 4.75 5H11.25C12.2165 5 13 5.7835 13 6.75V8.25C13 9.2165 12.2165 10 11.25 10H4.75C3.7835 10 3 9.2165 3 8.25V6.75ZM4.46967 6.21967C4.76256 5.92678 5.23744 5.92678 5.53033 6.21967L6.5 7.18934L7.46967 6.21967C7.76256 5.92678 8.23744 5.92678 8.53033 6.21967L9.5 7.18934L10.4697 6.21967C10.7626 5.92678 11.2374 5.92678 11.5303 6.21967C11.8232 6.51256 11.8232 6.98744 11.5303 7.28033L10.0303 8.78033C9.73744 9.07322 9.26256 9.07322 8.96967 8.78033L8 7.81066L7.03033 8.78033C6.73744 9.07322 6.26256 9.07322 5.96967 8.78033L4.46967 7.28033C4.17678 6.98744 4.17678 6.51256 4.46967 6.21967Z"/>
</svg>

<svg xmlns="http://www.w3.org/2000/svg" width="16" height="16" viewBox="0 0 16 16"><path fill-rule="evenodd" d="M0 8a8 8 0 1116 0v5.25a.75.75 0 01-1.5 0V8a6.5 6.5 0 10-13 0v5.25a.75.75 0 01-1.5 0V8zm5.5 4.25a.75.75 0 01.75-.75h3.5a.75.75 0 010 1.5h-3.5a.75.75 0 01-.75-.75zM3 6.75C3 5.784 3.784 5 4.75 5h6.5c.966 0 1.75.784 1.75 1.75v1.5A1.75 1.75 0 0111.25 10h-6.5A1.75 1.75 0 013 8.25v-1.5zm1.47-.53a.75.75 0 011.06 0l.97.97.97-.97a.75.75 0 011.06 0l.97.97.97-.97a.75.75 0 111.06 1.06l-1.5 1.5a.75.75 0 01-1.06 0L8 7.81l-.97.97a.75.75 0 01-1.06 0l-1.5-1.5a.75.75 0 010-1.06z"/></svg>
